www/assets/icons/computer.svg

<svg xmlns="http://www.w3.org/2000/svg" width="24" height="24" viewBox="0 0 24 24" fill='currentColor'><path d="M20 18c1.1 0 1.99-.9 1.99-2L22 6c0-1.1-.9-2-2-2H4c-1.1 0-2 .9-2 2v10c0 1.1.9 2 2 2H0v2h24v-2zM4 6h16v10H4z"/></svg>

<svg width="24" height="24" viewBox="0 0 24 24" xmlns="http://www.w3.org/2000/svg" fill='currentColor'><path d="M20 18C21.1 18 21.99 17.1 21.99 16L22 6C22 4.9 21.1 4 20 4H4C2.9 4 2 4.9 2 6V16C2 17.1 2.9 18 4 18H0V20H24V18H20ZM4 6H20V16H4V6Z"/></svg>
